X: 1
T: Loose Cart Wheel, The
M: 9/8
L: 1/8
R: slip jig
K: Gmaj
D2G AcB ABc|d2f gdBG2F|=FD=F cBc =f2e|gfdc2A GFG|
D2G AcB ABc|d2f gdBG2F|E<=F-FA2=F e<=f-f|def g2d GFG|
GBcd2e =fed|GBd =f2d g2^f|gdB =fcA ecG|dedc2A GFG|
GBcd2e =fed|GBd =f2d g2^f|gdB =fcA ecG|dedc2A GFG|
